**kern	**silbe	**harmony	**chordsym	**phrase	**timestamp	**leadinstrument
*ICvox	*	*M4/4	*M4/4	*	*	*
*G:	*	*G:	*G:	*	*	*
*M4/4	*	*	*	*	*	*
*clefG2	*	*	*	*	*	*
r;	.	1r;	r	.	0	r
=1	=1	=1	=1	=1	=1	=1
*	*	*>A_intro	*>A_intro	*>A_intro	*>A_intro	*>A_intro
1r	.	2GM	G:maj (G B D)	newline	0.325	guitar
.	.	2DM	D:maj (F# D A)	.	.	guitar
=2	=2	=2	=2	=2	=2	=2
1r	.	1CM	C:maj(9) (E C G D)	.	.	guitar
=3	=3	=3	=3	=3	=3	=3
1r	.	2GM	G:maj (G B D)	.	.	guitar
.	.	2DM	D:maj (F# D A)	.	.	guitar
=4	=4	=4	=4	=4	=4	=4
1r	.	2.CM	C:maj(9) (E C G D)	.	.	guitar
.	.	4DM	D:maj (F# D A)	.	.	guitar
=5	=5	=5	=5	=5	=5	=5
1r	.	2GM	G:maj (G B D)	newline	8.638	guitar
.	.	2DM	D:maj (F# D A)	.	.	guitar
=6	=6	=6	=6	=6	=6	=6
1r	.	2.CM	C:maj(9) (E C G D)	.	.	guitar
.	.	4DM	D:maj (F# D A)	.	.	guitar
=7	=7	=7	=7	=7	=7	=7
1r	.	2GM	G:maj (G B D)	.	.	guitar
.	.	2DM	D:maj (F# D A)	.	.	guitar
=8	=8	=8	=8	=8	=8	=8
1r	.	2.CM	C:maj(9) (E C G D)	.	.	guitar
.	.	4DM	D:maj (F# D A)	.	.	guitar
=9	=9	=9	=9	=9	=9	=9
*	*	*>B_chorus	*>B_chorus	*>B_chorus	*>B_chorus	*>B_chorus
1r	.	2GM	G:maj (G B D)	newline	16.612	guitar
.	.	2DM	D:maj (D F# A)	.	.	guitar
=10	=10	=10	=10	=10	=10	=10
1r	.	2.CM	C:maj(9) (C E G D)	.	.	guitar
.	.	4DM	D:maj (D F# A)	.	.	guitar
=11	=11	=11	=11	=11	=11	=11
1r	.	2GM	G:maj (G B D)	.	.	guitar
.	.	2DM	D:maj (D F# A)	.	.	guitar
=12	=12	=12	=12	=12	=12	=12
1r	.	2.CM	C:maj(9) (C E G D)	.	.	guitar
.	.	4DM	D:maj (D F# A)	.	.	guitar
=13	=13	=13	=13	=13	=13	=13
1r	.	2GM	G:maj (G B D)	newline	24.447	guitar
.	.	2DM	D:maj (D F# A)	.	.	guitar
=14	=14	=14	=14	=14	=14	=14
2dd	There	1CM	C:maj(9) (C E G D)	.	.	guitar
4.ff#	she	.	.	.	.	.
8[gg	goes	.	.	.	.	.
=15	=15	=15	=15	=15	=15	=15
*	*	*>C2_verse	*>C2_verse	*>C2_verse	*>C2_verse	*>C2_verse
2.gg]	_	2Amm	A:min7 (A C E G)	newline	28.295	guitar
.	.	2GM	G:maj (G B D)	.	.	guitar
4r	.	.	.	.	.	.
=16	=16	=16	=16	=16	=16	=16
4b	there	1CM	C:maj(9) (C E G D)	.	.	guitar
8dd	she	.	.	.	.	.
8[aa	goes	.	.	.	.	.
4aa]	_	.	.	.	.	.
8ff#	a-	.	.	.	.	.
8[gg	-gain	.	.	.	.	.
=17	=17	=17	=17	=17	=17	=17
2.gg]	_	1DM	D:maj (D F# A)	.	.	guitar
4r	.	.	.	.	.	.
=18	=18	=18	=18	=18	=18	=18
*	*	*>B_chorus	*>B_chorus	*>B_chorus	*>B_chorus	*>B_chorus
1r	.	2GM	G:maj (G B D)	newline	34.159	voice
.	.	2DM	D:maj (D F# A)	.	.	voice
=19	=19	=19	=19	=19	=19	=19
4b	ra-	2.CM	C:maj(9) (C E G D)	.	.	voice
4dd	-cing	.	.	.	.	.
4aa	through	.	.	.	.	.
4[ff#	my	4DM	D:maj (D F# A)	.	.	voice
=20	=20	=20	=20	=20	=20	=20
8ff#]	_	2GM	G:maj (G B D)	.	.	voice
8[gg	brain	.	.	.	.	.
2gg]	_	.	.	.	.	.
.	.	2DM	D:maj (D F# A)	.	.	voice
8r	.	.	.	.	.	.
8dd	and	.	.	.	.	.
=21	=21	=21	=21	=21	=21	=21
8dd	I	2.CM	C:maj(9) (C E G D)	.	.	voice
8cc	_	.	.	.	.	.
8cc	just	.	.	.	.	.
8b	_	.	.	.	.	.
8b	can't	.	.	.	.	.
8g	_	.	.	.	.	.
8g	con-	4DM	D:maj (D F# A)	.	.	voice
8b	-tain	.	.	.	.	.
=22	=22	=22	=22	=22	=22	=22
8cc	_	2GM	G:maj (G B D)	newline	41.974	voice
4.b	_	.	.	.	.	.
4r	.	2DM	D:maj (D F# A)	.	.	voice
4dd	this	.	.	.	.	.
=23	=23	=23	=23	=23	=23	=23
8dd	feel-	1CM	C:maj(9) (C E G D)	.	.	voice
8cc	_	.	.	.	.	.
8cc	-in	.	.	.	.	.
8b	_	.	.	.	.	.
4b	that	.	.	.	.	.
8g	re-	.	.	.	.	.
8b	-mains	.	.	.	.	.
=24	=24	=24	=24	=24	=24	=24
*	*	*>C_verse	*>C_verse	*>C_verse	*>C_verse	*>C_verse
8cc	_	2Amm	A:min7 (A C E G)	newline	45.9	voice
8b	_	.	.	.	.	.
8cc	_	.	.	.	.	.
4.b	_	.	.	.	.	.
.	.	2GM	G:maj (G B D)	.	.	voice
4r	.	.	.	.	.	.
=25	=25	=25	=25	=25	=25	=25
1r	.	1CM	C:maj(9) (C E G D)	.	.	voice
=26	=26	=26	=26	=26	=26	=26
2dd	There	2Amm	A:min7 (A C E G)	newline	49.805	voice
4.ff#	she	2GM	G:maj (G B D)	.	.	voice
8[gg	blows	.	.	.	.	.
=27	=27	=27	=27	=27	=27	=27
2.gg]	_	1CM	C:maj(9) (C E G D)	.	.	voice
4r	.	.	.	.	.	.
=28	=28	=28	=28	=28	=28	=28
4b	there	1DM	D:maj (D F# A)	.	.	voice
8dd	she	.	.	.	.	.
8[aa	blows	.	.	.	.	.
4aa]	_	.	.	.	.	.
8ff#	a-	.	.	.	.	.
8[gg	-gain	.	.	.	.	.
=29	=29	=29	=29	=29	=29	=29
*	*	*>B_chorus	*>B_chorus	*>B_chorus	*>B_chorus	*>B_chorus
2.gg]	_	2GM	G:maj (G B D)	newline	55.648	voice
.	.	2DM	D:maj (D F# A)	.	.	voice
4r	.	.	.	.	.	.
=30	=30	=30	=30	=30	=30	=30
1r	.	2.CM	C:maj(9) (C E G D)	.	.	voice
.	.	4DM	D:maj (D F# A)	.	.	voice
=31	=31	=31	=31	=31	=31	=31
4b	puls-	2GM	G:maj (G B D)	.	.	voice
4dd	-cing	.	.	.	.	.
4aa	through	2DM	D:maj (D F# A)	.	.	voice
4[ff#	my	.	.	.	.	.
=32	=32	=32	=32	=32	=32	=32
8ff#]	_	2.CM	C:maj(9) (C E G D)	.	.	voice
8[gg	brain	.	.	.	.	.
2gg]	_	.	.	.	.	.
8r	.	4DM	D:maj (D F# A)	.	.	voice
8cc	and	.	.	.	.	.
=33	=33	=33	=33	=33	=33	=33
8dd	I	2GM	G:maj (G B D)	newline	63.485	voice
8cc	_	.	.	.	.	.
8cc	just	.	.	.	.	.
8b	_	.	.	.	.	.
8b	can't	2DM	D:maj (D F# A)	.	.	voice
8g	_	.	.	.	.	.
8g	con-	.	.	.	.	.
8b	-tain	.	.	.	.	.
=34	=34	=34	=34	=34	=34	=34
8cc	_	1CM	C:maj(9) (C E G D)	.	.	voice
4.b	_	.	.	.	.	.
4r	.	.	.	.	.	.
4dd	this	.	.	.	.	.
=35	=35	=35	=35	=35	=35	=35
*	*	*>C_verse	*>C_verse	*>C_verse	*>C_verse	*>C_verse
8dd	feel-	2Amm	A:min7 (A C E G)	newline	67.315	voice
8cc	_	.	.	.	.	.
8cc	-in	.	.	.	.	.
8b	_	.	.	.	.	.
4b	that	2GM	G:maj (G B D)	.	.	voice
8g	re-	.	.	.	.	.
8b	-mains	.	.	.	.	.
=36	=36	=36	=36	=36	=36	=36
8cc	_	1CM	C:maj(9) (C E G D)	.	.	voice
8b	_	.	.	.	.	.
8cc	_	.	.	.	.	.
4.b	_	.	.	.	.	.
4r	.	.	.	.	.	.
=37	=37	=37	=37	=37	=37	=37
1r	.	2Amm	A:min7 (A C E G)	newline	71.227	voice
.	.	2GM	G:maj (G B D)	.	.	voice
=38	=38	=38	=38	=38	=38	=38
1r	.	1CM	C:maj(9) (C E G D)	.	.	voice
=39	=39	=39	=39	=39	=39	=39
1r	.	1DM	D:maj (D F# A)	.	.	voice
=40	=40	=40	=40	=40	=40	=40
*	*	*>B_chorus	*>B_chorus	*>B_chorus	*>B_chorus	*>B_chorus
1r	.	2GM	G:maj (G B D)	newline	77.113	guitar
.	.	2DM	D:maj (D F# A)	.	.	guitar
=41	=41	=41	=41	=41	=41	=41
1r	.	2.CM	C:maj(9) (C E G D)	.	.	guitar
.	.	4DM	D:maj (D F# A)	.	.	guitar
=42	=42	=42	=42	=42	=42	=42
1r	.	2GM	G:maj (G B D)	.	.	guitar
.	.	2DM	D:maj (D F# A)	.	.	guitar
=43	=43	=43	=43	=43	=43	=43
1r	.	2.CM	C:maj(9) (C E G D)	.	.	guitar
.	.	4DM	D:maj (D F# A)	.	.	guitar
=44	=44	=44	=44	=44	=44	=44
1r	.	2GM	G:maj (G B D)	newline	84.946	guitar
.	.	2DM	D:maj (D F# A)	.	.	guitar
=45	=45	=45	=45	=45	=45	=45
1r	.	1CM	C:maj(9) (C E G D)	.	.	guitar
=46	=46	=46	=46	=46	=46	=46
*	*	*>C_verse	*>C_verse	*>C_verse	*>C_verse	*>C_verse
1r	.	2Amm	A:min7 (A C E G)	newline	88.816	guitar
.	.	2GM	G:maj (G B D)	.	.	guitar
=47	=47	=47	=47	=47	=47	=47
1r	.	1CM	C:maj(9) (C E G D)	.	.	guitar
=48	=48	=48	=48	=48	=48	=48
1r	.	2Amm	A:min7 (A C E G)	newline	92.694	guitar
.	.	2GM	G:maj (G B D)	.	.	guitar
=49	=49	=49	=49	=49	=49	=49
2dd	_	1CM	C:maj(9) (C E G D)	.	.	guitar
4.ff#	_	.	.	.	.	.
8[gg	_	.	.	.	.	.
=50	=50	=50	=50	=50	=50	=50
2.gg]	_	1DM	D:maj (D F# A)	.	.	guitar
4r	.	.	.	.	.	.
=51	=51	=51	=51	=51	=51	=51
*	*	*>D_bridge	*>D_bridge	*>D_bridge	*>D_bridge	*>D_bridge
4b	_	1Em	E:min (E G B)	newline	98.602	voice
8dd	_	.	.	.	.	.
8[aa	_	.	.	.	.	.
4aa]	_	.	.	.	.	.
8ff#	_	.	.	.	.	.
8[gg	_	.	.	.	.	.
=52	=52	=52	=52	=52	=52	=52
4.gg]	_	1CM	C:maj (C E G)	.	.	voice
8dd	_	.	.	.	.	.
4dd	_	.	.	.	.	.
4ff#	_	.	.	.	.	.
=53	=53	=53	=53	=53	=53	=53
4.gg	_	1Em	E:min (E G B)	.	.	voice
8r	.	.	.	.	.	.
4dd	_	.	.	.	.	.
4ff#	_	.	.	.	.	.
=54	=54	=54	=54	=54	=54	=54
4.gg	_	2CM	C:maj (C E G)	.	.	voice
8r	.	.	.	.	.	.
8dd	_	4DM	D:maj (D F# A)	.	.	voice
8cc	_	.	.	.	.	.
8cc	_	4DMm	D:7 (D F# A C)	.	.	voice
8b	_	.	.	.	.	.
=55	=55	=55	=55	=55	=55	=55
4b	_	2GM	G:maj (G B D)	newline	106.433	voice
4dd	_	.	.	.	.	.
4aa	_	4DM	D:maj(9) (D F# A E)	.	.	voice
4[ff#	_	4DMm	D:7 (D F# A C)	.	.	voice
=56	=56	=56	=56	=56	=56	=56
8ff#]	_	2CMM	C:maj7 (C E G B)	.	.	voice
8[gg	_	.	.	.	.	.
2gg]	_	.	.	.	.	.
.	.	4DM	D:maj(9) (D F# A E)	.	.	voice
8r	.	4DMm	D:7 (D F# A C)	.	.	voice
8dd	_	.	.	.	.	.
=57	=57	=57	=57	=57	=57	=57
8dd	_	2GM	G:maj (G B D)	.	.	voice
8cc	_	.	.	.	.	.
8cc	_	.	.	.	.	.
8b	_	.	.	.	.	.
8b	_	4DM	D:maj(9) (D F# A E)	.	.	voice
8g	_	.	.	.	.	.
8g	_	4DMm	D:7 (D F# A C)	.	.	voice
8b	_	.	.	.	.	.
=58	=58	=58	=58	=58	=58	=58
8cc	_	2CMM	C:maj7 (C E G B)	.	.	voice
4.b	_	.	.	.	.	.
4r	.	4DM	D:maj(9) (D F# A E)	.	.	voice
4cc	_	4DMm	D:7 (D F# A C)	.	.	voice
=59	=59	=59	=59	=59	=59	=59
8dd	_	1Amm	A:min7 (A C E G)	newline	114.177	voice
8cc	_	.	.	.	.	.
8cc	_	.	.	.	.	.
8b	_	.	.	.	.	.
4b	_	.	.	.	.	.
8g	_	.	.	.	.	.
8b	_	.	.	.	.	.
=60	=60	=60	=60	=60	=60	=60
8cc	_	1Emm	E:min7 (E G B D)	.	.	voice
8b	_	.	.	.	.	.
8cc	_	.	.	.	.	.
4.b	_	.	.	.	.	.
4r	.	.	.	.	.	.
=61	=61	=61	=61	=61	=61	=61
1r	.	1CM	C:maj6 (C E G A)	newline	118.059	voice
=62	=62	=62	=62	=62	=62	=62
2dd	_	1DM	D:maj (D F# A)	.	.	voice
4.ff#	_	.	.	.	.	.
8[gg	_	.	.	.	.	.
=63	=63	=63	=63	=63	=63	=63
*	*	*>B_chorus	*>B_chorus	*>B_chorus	*>B_chorus	*>B_chorus
2.gg]	_	2GM	G:maj (G B D)	newline	122.035	voice
.	.	2DM	D:maj (D F# A)	.	.	voice
4r	.	.	.	.	.	.
=64	=64	=64	=64	=64	=64	=64
4b	_	2.CM	C:maj(9) (C E G D)	.	.	voice
8dd	_	.	.	.	.	.
8[aa	_	.	.	.	.	.
4aa]	_	.	.	.	.	.
8ff#	_	4DM	D:maj (D F# A)	.	.	voice
8[gg	_	.	.	.	.	.
=65	=65	=65	=65	=65	=65	=65
2.gg]	_	2GM	G:maj (G B D)	.	.	voice
.	.	2DM	D:maj (D F# A)	.	.	voice
4r	.	.	.	.	.	.
=66	=66	=66	=66	=66	=66	=66
1r	.	2.CM	C:maj(9) (C E G D)	.	.	voice
.	.	4DM	D:maj (D F# A)	.	.	voice
=67	=67	=67	=67	=67	=67	=67
4b	_	2GM	G:maj (G B D)	newline	129.835	voice
4dd	_	.	.	.	.	.
4aa	_	2DM	D:maj (D F# A)	.	.	voice
4[ff#	_	.	.	.	.	.
=68	=68	=68	=68	=68	=68	=68
8ff#]	_	1CM	C:maj(9) (C E G D)	.	.	voice
8[gg	_	.	.	.	.	.
2gg]	_	.	.	.	.	.
8r	.	.	.	.	.	.
8dd	_	.	.	.	.	.
=69	=69	=69	=69	=69	=69	=69
*	*	*>C_verse	*>C_verse	*>C_verse	*>C_verse	*>C_verse
8dd	_	2Amm	A:min7 (A C E G)	newline	133.746	voice
8cc	_	.	.	.	.	.
8cc	_	.	.	.	.	.
8b	_	.	.	.	.	.
8b	_	2GM	G:maj (G B D)	.	.	voice
8g	_	.	.	.	.	.
8g	_	.	.	.	.	.
8b	_	.	.	.	.	.
=70	=70	=70	=70	=70	=70	=70
8cc	_	1CM	C:maj(9) (C E G D)	.	.	voice
4.b	_	.	.	.	.	.
4r	.	.	.	.	.	.
4dd	_	.	.	.	.	.
=71	=71	=71	=71	=71	=71	=71
8dd	_	2Amm	A:min7 (A C E G)	newline	137.608	voice
8cc	_	.	.	.	.	.
8cc	_	.	.	.	.	.
8b	_	.	.	.	.	.
4b	_	2GM	G:maj (G B D)	.	.	voice
8g	_	.	.	.	.	.
8b	_	.	.	.	.	.
=72	=72	=72	=72	=72	=72	=72
8cc	_	1CM	C:maj(9) (C E G D)	.	.	voice
8b	_	.	.	.	.	.
8cc	_	.	.	.	.	.
4.b	_	.	.	.	.	.
4r	.	.	.	.	.	.
=73	=73	=73	=73	=73	=73	=73
1r	.	1DM	D:maj (D F# A)	.	.	voice
=74	=74	=74	=74	=74	=74	=74
*	*	*>B_chorus	*>B_chorus	*>B_chorus	*>B_chorus	*>B_chorus
1r	.	2GM	G:maj (G B D)	newline	143.494	voice
.	.	2DM	D:maj (D F# A)	.	.	voice
=75	=75	=75	=75	=75	=75	=75
1r	.	2.CM	C:maj(9) (C E G D)	.	.	voice
.	.	4DM	D:maj (D F# A)	.	.	voice
=76	=76	=76	=76	=76	=76	=76
1r	.	2GM	G:maj (G B D)	.	.	voice
.	.	2DM	D:maj (D F# A)	.	.	voice
=77	=77	=77	=77	=77	=77	=77
1r	.	2.CM	C:maj(9) (C E G D)	.	.	voice
.	.	4DM	D:maj (D F# A)	.	.	voice
=78	=78	=78	=78	=78	=78	=78
1r	.	2GM	G:maj (G B D)	newline	151.348	voice
.	.	2DM	D:maj (D F# A)	.	.	voice
=79	=79	=79	=79	=79	=79	=79
1r	.	1CM	C:maj(9) (C E G D)	.	.	voice
=80	=80	=80	=80	=80	=80	=80
1r	.	1GM	G:maj (G B D)	.	.	voice
r;	.	1r;	r	.	160.543	r
r;	.	1r;	r	.	162.56	r
*-	*-	*-	*-	*-	*-	*-
!!!BillboardChartDate: 1991/07/27
!!!BillboardPeak: 49
!!!BillboardWeeksOnChart: 10
!!!COC: The La's
!!!ENC: Nathaniel Condit-Schultz
!!!EST: Awating manual error checking and editing.
!!!OTL: There She Goes
!!!RDF**chordsym: original McGill chord annotation + (implied pitch class set, with bass pitch in first position)
!!!RDF**harmony: **recip + pitch class of root + harmonic quality
!!!RDF**leadinstrument: original McGill primary instrumentation annotation
!!!RDF**phrase: newline = linebreak in original McGill transcription
!!!RDF**timestamp: McGill audio timestamp in seconds
!!!RDT: 2017/01/12/
!!!SampleActualRank: 80
!!!SampleID#: 1289
!!!SampleTargetRank: 80
